projects/vfh1/img/icons-service/cardio.svg

<svg viewBox="0 0 33 28" fill="none" xmlns="http://www.w3.org/2000/svg">
<path d="M22.7046 4.00009C21.4244 4.00903 20.1813 4.43491 19.1606 5.21424C18.1399 5.99357 17.3962 7.08463 17.0404 8.32483C16.6812 7.07258 15.9266 5.97271 14.8912 5.1922C13.8558 4.41168 12.5961 3.99313 11.3034 4.00009C7.8321 4.00009 5 7.42724 5 11.1645C5 17.2762 11.0607 22.2048 17 24C22.9393 22.2048 29 17.2762 29 11.1645C29.0081 7.42724 26.1841 4.00009 22.7046 4.00009ZM26.5563 13.6696H20.8921C20.7815 13.6697 20.6739 13.633 20.586 13.5651C20.4982 13.4973 20.4352 13.402 20.4066 13.2942L19.9292 11.4256L18.0843 18.8593C18.0589 18.9679 17.998 19.0648 17.9114 19.1344C17.8248 19.2039 17.7176 19.2421 17.6069 19.2428C17.4962 19.243 17.3886 19.2062 17.3008 19.1384C17.213 19.0705 17.1499 18.9752 17.1214 18.8674L15.3007 12.2253L13.9818 17.1212C13.9528 17.2257 13.8919 17.3183 13.8076 17.3857C13.7233 17.4531 13.62 17.4919 13.5125 17.4966C13.3989 17.494 13.2895 17.4532 13.2016 17.3808C13.1136 17.3084 13.0522 17.2084 13.027 17.0967L12.2663 13.6288H7.46797C7.41852 13.6297 7.37033 13.613 7.33186 13.5817C7.29338 13.5504 7.26709 13.5064 7.25758 13.4574L7.1443 12.772C7.14069 12.7529 7.14134 12.7333 7.14621 12.7145C7.15107 12.6957 7.16003 12.6782 7.17244 12.6634C7.18484 12.6485 7.20037 12.6367 7.2179 12.6286C7.23543 12.6206 7.25452 12.6166 7.27377 12.6169H12.6467C12.761 12.6166 12.8719 12.6562 12.9604 12.7292C13.049 12.8021 13.1097 12.9037 13.1322 13.0168L13.5206 14.8609L14.8071 10.12C14.8357 10.0122 14.8988 9.91696 14.9866 9.84907C15.0744 9.78118 15.182 9.74447 15.2926 9.74465C15.4029 9.74583 15.5099 9.78305 15.5974 9.85073C15.685 9.91841 15.7484 10.0129 15.7781 10.12L17.5745 16.6887L19.3951 9.2877C19.4259 9.18079 19.4903 9.08684 19.5786 9.02C19.6669 8.95315 19.7743 8.91701 19.8847 8.91701C19.9951 8.91701 20.1025 8.95315 20.1908 9.02C20.2791 9.08684 20.3434 9.18079 20.3742 9.2877L21.2886 12.6659H26.7181C26.7374 12.6656 26.7565 12.6695 26.774 12.6776C26.7915 12.6856 26.8071 12.6975 26.8195 12.7123C26.8319 12.7272 26.8408 12.7446 26.8457 12.7634C26.8506 12.7822 26.8512 12.8019 26.8476 12.8209L26.7343 13.5064C26.7247 13.5487 26.7025 13.587 26.6707 13.6162C26.6389 13.6453 26.5989 13.664 26.5563 13.6696Z" fill="#42474D"/>
</svg>

<svg viewBox="0 0 33 28" fill="none" xmlns="http://www.w3.org/2000/svg"><path d="M22.705 4a5.907 5.907 0 00-3.544 1.214 5.99 5.99 0 00-2.12 3.11 5.99 5.99 0 00-2.15-3.132A5.906 5.906 0 0011.303 4C7.833 4 5 7.427 5 11.165 5 17.276 11.06 22.204 17 24c5.94-1.795 12-6.724 12-12.835C29.008 7.427 26.184 4 22.705 4zm3.851 9.67h-5.664a.5.5 0 01-.485-.376l-.478-1.868-1.845 7.433a.499.499 0 01-.477.384.5.5 0 01-.486-.376l-1.82-6.642-1.32 4.896a.515.515 0 01-.469.376.507.507 0 01-.485-.4l-.76-3.468h-4.8a.21.21 0 01-.21-.172l-.114-.685a.132.132 0 01.074-.143.13.13 0 01.056-.012h5.373a.49.49 0 01.485.4l.389 1.844 1.286-4.741a.507.507 0 01.486-.375.507.507 0 01.485.375l1.796 6.569 1.821-7.401a.514.514 0 01.49-.371.507.507 0 01.49.37l.914 3.379h5.43a.128.128 0 01.1.046.132.132 0 01.029.109l-.114.685a.213.213 0 01-.178.164z" fill="#42474D"/></svg>
